image/footer-icons/twitter.svg

<svg width="20" height="20" viewBox="0 0 20 20" fill="none" xmlns="http://www.w3.org/2000/svg">
<path d="M20 2.37575C19.2645 2.76628 18.4641 3.04735 17.6397 3.15682C18.4956 2.53089 19.1366 1.54202 19.4424 0.375752C18.6392 0.963885 17.7593 1.37629 16.8417 1.59469C16.4582 1.09003 15.9944 0.687999 15.4792 0.413643C14.9639 0.139287 14.4083 -0.00151415 13.8469 1.22793e-05C11.5755 1.22793e-05 9.74883 2.26628 9.74883 5.04735C9.74883 5.43788 9.78729 5.82841 9.84978 6.20415C6.44874 5.98522 3.41546 3.98522 1.39887 0.923089C1.03143 1.69562 0.838874 2.57524 0.841245 3.47042C0.841245 5.2219 1.56472 6.76628 2.66795 7.67456C2.0178 7.64305 1.38287 7.42308 0.814806 7.03255V7.09468C0.814806 9.54734 2.22329 11.5799 4.10047 12.0473C3.74801 12.16 3.38543 12.2177 3.02127 12.2189C2.75448 12.2189 2.5021 12.1864 2.24733 12.142C2.76649 14.142 4.27833 15.5947 6.0786 15.642C4.67011 17 2.9059 17.7988 0.990266 17.7988C0.646557 17.7988 0.329287 17.784 0 17.7367C1.81709 19.1716 3.97308 20 6.29492 20C13.8325 20 17.957 12.3136 17.957 5.64202C17.957 5.42309 17.957 5.20415 17.945 4.98522C18.7429 4.26628 19.4424 3.37575 20 2.37575Z" fill="white"/>
</svg>

<svg fill="none" height="20" width="20" xmlns="http://www.w3.org/2000/svg"><path d="M20 2.376a7.045 7.045 0 01-2.36.78c.856-.625 1.497-1.614 1.802-2.78-.803.588-1.683 1-2.6 1.219A4.21 4.21 0 0015.479.414 3.443 3.443 0 0013.847 0c-2.271 0-4.098 2.266-4.098 5.047 0 .39.038.781.1 1.157-3.4-.219-6.434-2.219-8.45-5.28A5.921 5.921 0 00.84 3.47c0 1.752.724 3.296 1.827 4.205a3.57 3.57 0 01-1.853-.642v.062c0 2.452 1.408 4.485 3.285 4.952-.352.113-.715.17-1.079.172-.267 0-.519-.033-.774-.077.52 2 2.031 3.453 3.832 3.5C4.67 17 2.906 17.799.99 17.799a6.83 6.83 0 01-.99-.062C1.817 19.172 3.973 20 6.295 20c7.538 0 11.662-7.686 11.662-14.358 0-.219 0-.438-.012-.657A10.205 10.205 0 0020 2.375z" fill="#fff"/></svg>
